!!!OTL: America, the Beautiful
!!!COM: Ward, Samuel
!!!LYR: Bates, Katherine
!!!ODT: unknown
!!!YOR: Gospel's Greatest
!!!YOY: 2000
!!!AST: Patriotic song
!!!YEC: Brian Luke, 2001
**kern	**harm
*k[]	*k[]
*M4/4	*M4/4
*C:	*C:
*>A	*>A
4g	.
=1	=1
4.g	I
8e	.
4e	.
4g	.
=2	=2
4.g	V
8d	.
4d	.
4e	.
=3	=3
4f	V7
4g	.
4a	.
4b	.
=4	=4
2.g	I
.	V7
*>A'	*>A'
4g	.
=5	=5
4.g	I
8e	.
4e	.
4g	viio7/ii
=6	=6
4.g	Vc
8d	.
4d	.
4dd	.
=7	=7
4cc#	.
4dd	.
4ee	V7/V
4a	.
=8	=8
2.dd	V7
*>B	*>B
4g	.
=9	=9
4.ee	I
8ee	.
4dd	.
4cc	.
=10	=10
4.cc	V7
8b	.
4b	.
4cc	.
=11	=11
4dd	.
4b	.
4a	.
4g	.
=12	=12
2.cc	I
.	ii7
4cc	V7/IVb
=13	=13
4.cc	IV
8a	.
4a	.
4cc	.
=14	=14
4.cc	Ic
8g	.
4g	.
4g	.
=15	=15
4a	IV
4cc	.
4g	V7
4dd	.
=16	=16
1cc	I;
*-	*-
